; generated by PrusaSlicer 2.9.1 on 2025-03-31 at 15:19:26 UTC

; 

; external perimeters extrusion width = 0.45mm
; perimeters extrusion width = 0.45mm
; infill extrusion width = 0.45mm
; solid infill extrusion width = 0.45mm
; top infill extrusion width = 0.40mm

;TYPE:Custom
M106 1 ; Turn on fan 2 (hot end)
G90 ; use absolute coordinates
M83 ; extruder relative mode
M140 S60 ; set final bed temp
; M104 S140 ; set temporary nozzle temp to prevent oozing during homing
G4 S10 ; allow partial nozzle warmup
G28 ; home all axis
G29 ; enable leveling
G1 Z50 F240
G1 X2 Y10 F3000
M104 S200 ; set final nozzle temp
M190 S60 ; wait for bed temp to stabilize
M109 S200 ; wait for nozzle temp to stabilize
G1 Z1.0 F240
G92 E0
G1 Y140 E10 F1500 ; prime the nozzle
G1 X2.3 F5000
G92 E0
G1 Y10 E10 F1200 ; prime the nozzle
G92 E0
G21 ; set units to millimeters
G90 ; use absolute coordinates
M83 ; use relative distances for extrusion
; Filament gcode
M106 S255
;LAYER_CHANGE
;Z:0.3
;HEIGHT:0.3
G1 E-5 F2700
G1 Z.3 F300
G1 X121.783 Y111.22 F6000
G1 Z.3 F300
G1 E5 F2700
;TYPE:External perimeter
;WIDTH:0.45
G1 F1269.671
G1 X121.796 Y111.227 E.00071
G1 X122.206 Y111.169 E.01992
G1 X122.414 Y111.098 E.01057
G1 X122.712 Y110.924 E.0166
G1 X123.067 Y110.671 E.02097
G1 X123.295 Y110.572 E.01196
G1 X123.536 Y110.546 E.01166
G1 X124.03 Y110.592 E.02386
G1 X124.288 Y110.641 E.01263
G1 X124.475 Y110.71 E.00959
G1 X124.701 Y110.826 E.01222
G1 X125.237 Y111.16 E.03038
G1 X125.549 Y111.472 E.02122
G1 X125.786 Y111.813 E.01997
G1 X125.903 Y112.067 E.01345
G1 X125.957 Y112.278 E.01048
G1 X125.988 Y112.646 E.01776
G1 X125.949 Y112.824 E.00876
G1 X125.888 Y112.968 E.00752
G1 X125.775 Y113.133 E.00962
G1 X125.301 Y113.654 E.03388
G1 X125.164 Y113.84 E.01111
G1 X125.057 Y114.137 E.01518
G1 X125.141 Y114.31 E.00925
G1 X125.232 Y114.453 E.00815
G1 X125.574 Y114.541 E.01698
G1 X125.875 Y114.529 E.01449
G1 X126.128 Y114.457 E.01265
G1 X126.606 Y114.259 E.02488
G1 X126.808 Y114.211 E.00999
G1 X126.937 Y114.226 E.00625
G1 X127.546 Y114.598 E.03432
G1 X127.796 Y114.793 E.01525
G1 X127.964 Y114.995 E.01264
G1 X128.049 Y115.124 E.00743
G1 X128.159 Y115.375 E.01318
G1 X128.198 Y115.533 E.00783
G1 X128.2 Y115.988 E.02188
G1 X128.113 Y116.437 E.022
G1 X128.032 Y116.613 E.00932
G1 X127.91 Y116.773 E.00968
G1 X127.607 Y117.021 E.01883
G1 X127.352 Y117.15 E.01374
G1 X127.156 Y117.2 E.00973
G1 X126.835 Y117.208 E.01544
G1 X126.32 Y117.089 E.02542
G1 X126.085 Y117.173 E.012
G1 X125.908 Y117.332 E.01144
G1 X125.792 Y117.471 E.00871
G1 X125.554 Y117.697 E.01579
G1 X125.499 Y117.798 E.00553
G1 X125.435 Y117.851 E.004
G1 X125.243 Y118.432 E.02943
G1 X125.065 Y118.852 E.02194
G1 X124.703 Y119.43 E.0328
G1 X124.521 Y119.611 E.01235
G1 X124.059 Y119.977 E.02835
G1 X123.234 Y120.352 E.04359
G1 X123.048 Y120.396 E.00919
G1 X122.884 Y120.408 E.00791
G1 X122.371 Y120.378 E.02472
G1 X121.771 Y120.41 E.0289
G1 X121.568 Y120.498 E.01064
G1 X121.475 Y120.592 E.00636
G1 X120.768 Y120.796 E.03539
G1 X120.042 Y121.14 E.03864
G1 X119.518 Y121.319 E.02663
G1 X118.661 Y121.546 E.04264
G1 X118.462 Y121.618 E.01018
G1 X117.957 Y121.888 E.02754
G1 X117.779 Y122.074 E.01238
G1 X117.635 Y122.507 E.02195
G1 X117.535 Y122.709 E.01084
G1 X117.327 Y122.985 E.01662
G1 X117.091 Y123.36 E.02131
G1 X116.952 Y123.5 E.00949
G1 X116.58 Y123.709 E.02052
G1 X116.186 Y123.893 E.02091
G1 X116.005 Y123.933 E.00892
G1 X115.643 Y123.932 E.01741
G1 X115.183 Y123.881 E.02226
G1 X114.827 Y123.865 E.01714
G1 X114.178 Y123.744 E.03175
G1 X113.304 Y123.456 E.04426
G1 X112.898 Y123.294 E.02102
G1 X112.711 Y123.254 E.0092
G1 X112.436 Y123.088 E.01545
G1 X112.288 Y122.946 E.00986
G1 X111.979 Y122.841 E.0157
G1 X111.717 Y122.707 E.01415
G1 X111.545 Y122.671 E.00845
G1 X111.308 Y122.582 E.01218
G1 X111.211 Y122.582 E.00467
G1 X111.121 Y122.209 E.01845
G1 X111.001 Y122.045 E.00977
G1 X110.697 Y121.921 E.01579
G1 X110.538 Y121.942 E.00771
G1 X110.433 Y121.666 E.0142
G1 X109.941 Y121.426 E.02633
G1 X109.882 Y121.359 E.00429
G1 X109.734 Y120.588 E.03776
G1 X109.408 Y119.895 E.03683
G1 X109.304 Y119.364 E.02602
G1 X109.3 Y119.077 E.01381
G1 X109.359 Y118.887 E.00957
G1 X109.622 Y118.672 E.01634
G1 X109.866 Y118.305 E.0212
G1 X109.843 Y118.221 E.00419
G1 X109.908 Y118.206 E.00321
G1 X110.058 Y118.232 E.00732
G1 X110.242 Y118.181 E.00918
G1 X110.529 Y117.9 E.01932
G1 X110.549 Y117.619 E.01355
G1 X110.527 Y117.343 E.01332
G1 X110.401 Y117.047 E.01547
G1 X110.288 Y116.9 E.00892
G1 X110.287 Y116.82 E.00385
G1 X110.531 Y116.292 E.02798
G1 X110.559 Y116.17 E.00602
G1 X110.833 Y115.806 E.02191
G1 X110.92 Y115.6 E.01076
G1 X110.951 Y115.38 E.01069
G1 X111.067 Y115.218 E.00958
G1 X111.134 Y115.063 E.00812
G1 X111.234 Y114.663 E.01983
G1 X111.31 Y114.511 E.00817
G1 X111.393 Y114.268 E.01235
G1 X111.393 Y114.021 E.01188
G1 X111.236 Y113.499 E.02622
G1 X111.045 Y112.305 E.05816
G1 X111.181 Y111.093 E.05866
G1 X111.274 Y110.685 E.02013
G1 X111.426 Y110.388 E.01605
G1 X111.685 Y109.99 E.02284
G1 X111.89 Y109.251 E.03689
G1 X112.102 Y108.781 E.0248
G1 X112.257 Y108.54 E.01378
G1 X112.457 Y108.313 E.01455
G1 X112.599 Y108.216 E.00827
G1 X113.487 Y107.358 E.05939
G1 X113.662 Y107.282 E.00918
G1 X113.894 Y107.241 E.01133
G1 X114.559 Y107.07 E.03302
G1 X114.826 Y106.979 E.01357
G1 X115.138 Y106.825 E.01673
G1 X115.274 Y106.565 E.01411
G1 X115.418 Y106.051 E.02567
G1 X115.664 Y105.432 E.03204
G1 X115.834 Y105.198 E.01391
G1 X116.08 Y104.96 E.01646
G1 X116.322 Y104.823 E.01338
G1 X116.62 Y104.699 E.01552
G1 X116.947 Y104.64 E.01598
G1 X117.248 Y104.65 E.01449
G1 X117.522 Y104.732 E.01376
G1 X117.875 Y104.895 E.0187
G1 X118.141 Y105.101 E.01618
G1 X118.274 Y105.255 E.00979
G1 X118.384 Y105.466 E.01144
G1 X118.479 Y105.773 E.01546
G1 X118.588 Y106.552 E.03783
G1 X118.67 Y106.864 E.01552
G1 X118.905 Y107.263 E.02227
G1 X119.182 Y107.436 E.01571
G1 X119.445 Y107.197 E.01709
G1 X119.745 Y106.766 E.02526
G1 X119.851 Y106.663 E.00711
G1 X120.002 Y106.567 E.00861
G1 X120.435 Y106.553 E.02084
G1 X120.967 Y106.699 E.02653
G1 X121.396 Y106.902 E.02283
G1 X121.71 Y107.13 E.01866
G1 X121.853 Y107.284 E.01011
G1 X122.106 Y107.611 E.01989
G1 X122.276 Y107.946 E.01807
G1 X122.352 Y108.202 E.01284
G1 X122.389 Y108.479 E.01344
G1 X122.409 Y108.771 E.01408
G1 X122.407 Y109.193 E.0203
G1 X122.334 Y109.667 E.02307
G1 X122.288 Y109.816 E.0075
G1 X122.228 Y109.905 E.00516
G1 X122.157 Y109.946 E.00394
G1 X121.573 Y110.139 E.02958
G1 X121.367 Y110.431 E.01719
G1 X121.42 Y110.785 E.01722
G1 X121.539 Y111.074 E.01503
G1 X121.698 Y111.169 E.00891
G1 X122.098 Y111.172 F6000
G1 E-5 F2700
G1 X122.188 Y111.536 F6000
G1 X111.745 Y114.326
G1 X111.759 Y114.328
G1 E5 F2700
;TYPE:Solid infill
;WIDTH:0.450884
G1 F1266.769
G1 X111.759 Y113.967 E.0174
G1 X111.593 Y113.417 E.0277
G1 X111.414 Y112.297 E.05468
G1 X111.543 Y111.154 E.05545
G1 X111.62 Y110.811 E.01695
G1 X111.743 Y110.572 E.01296
G1 X112.023 Y110.142 E.02474
G1 X112.235 Y109.376 E.03831
G1 X112.425 Y108.956 E.02222
G1 X112.55 Y108.761 E.01117
G1 X112.702 Y108.59 E.01103
G1 X112.831 Y108.501 E.00756
G1 X113.694 Y107.668 E.05782
G1 X113.769 Y107.635 E.00395
G1 X114.663 Y107.421 E.04431
G1 X114.967 Y107.318 E.01547
G1 X115.407 Y107.1 E.02367
G1 X115.616 Y106.701 E.02171
G1 X115.766 Y106.168 E.02669
G1 X115.987 Y105.61 E.02893
G1 X116.112 Y105.439 E.01021
G1 X116.302 Y105.255 E.01275
G1 X116.483 Y105.153 E.01002
G1 X116.724 Y105.053 E.01258
G1 X116.973 Y105.007 E.01221
G1 X117.189 Y105.015 E.01042
G1 X117.392 Y105.076 E.01022
G1 X117.683 Y105.21 E.01544
G1 X117.888 Y105.369 E.01251
G1 X117.969 Y105.462 E.00595
G1 X118.044 Y105.606 E.00783
G1 X118.12 Y105.853 E.01246
G1 X118.229 Y106.625 E.03758
G1 X118.329 Y107.006 E.01899
G1 X118.634 Y107.527 E.0291
G1 X119.224 Y107.894 E.0335
G1 X119.722 Y107.44 E.03249
G1 X120.025 Y107.004 E.0256
G1 X120.113 Y106.93 E.00554
G1 X120.392 Y106.921 E.01346
G1 X120.84 Y107.043 E.02238
G1 X121.209 Y107.219 E.01971
G1 X121.466 Y107.405 E.01529
G1 X121.795 Y107.807 E.02504
G1 X121.934 Y108.081 E.01481
G1 X121.992 Y108.278 E.0099
G1 X122.024 Y108.516 E.01158
G1 X122.04 Y109.164 E.03125
G1 X121.976 Y109.584 E.02048
G1 X121.964 Y109.624 E.00201
G1 X121.343 Y109.829 E.03153
G1 X120.982 Y110.34 E.03016
G1 X121.065 Y110.883 E.02648
G1 X121.247 Y111.326 E.02309
G1 X121.719 Y111.608 E.02651
G1 X122.291 Y111.527 E.02785
G1 X122.567 Y111.433 E.01406
G1 X122.912 Y111.232 E.01925
G1 X123.248 Y110.991 E.01993
G1 X123.389 Y110.93 E.00741
G1 X123.539 Y110.914 E.00727
G1 X123.979 Y110.955 E.0213
G1 X124.19 Y110.995 E.01035
G1 X124.52 Y111.145 E.01747
G1 X125.008 Y111.449 E.02772
G1 X125.267 Y111.708 E.01766
G1 X125.467 Y111.995 E.01686
G1 X125.556 Y112.19 E.01033
G1 X125.595 Y112.34 E.00747
G1 X125.618 Y112.622 E.01364
G1 X125.565 Y112.791 E.00854
G1 X125.487 Y112.905 E.00666
G1 X125.017 Y113.422 E.03368
G1 X124.838 Y113.666 E.01459
G1 X124.661 Y114.157 E.02516
G1 X124.82 Y114.488 E.0177
G1 X125.001 Y114.772 E.01623
G1 X125.534 Y114.91 E.02654
G1 X125.934 Y114.894 E.0193
G1 X126.249 Y114.804 E.01579
G1 X126.719 Y114.608 E.02455
G1 X126.821 Y114.584 E.00505
G1 X127.337 Y114.899 E.02914
G1 X127.539 Y115.058 E.01239
G1 X127.669 Y115.214 E.00979
G1 X127.726 Y115.3 E.00497
G1 X127.832 Y115.578 E.01434
G1 X127.833 Y115.954 E.01813
G1 X127.762 Y116.324 E.01816
G1 X127.717 Y116.423 E.00524
G1 X127.645 Y116.517 E.00571
G1 X127.406 Y116.712 E.01487
G1 X127.223 Y116.805 E.0099
G1 X127.106 Y116.835 E.00582
G1 X126.872 Y116.841 E.01128
G1 X126.298 Y116.708 E.0284
G1 X125.894 Y116.852 E.02068
G1 X125.643 Y117.077 E.01625
G1 X125.524 Y117.221 E.00901
G1 X125.261 Y117.471 E.01749
G1 X125.212 Y117.56 E.0049
G1 X125.12 Y117.636 E.00575
G1 X124.9 Y118.302 E.03381
G1 X124.739 Y118.682 E.01989
G1 X124.415 Y119.2 E.02945
G1 X124.278 Y119.337 E.00934
G1 X123.866 Y119.662 E.0253
G1 X123.116 Y120.003 E.03972
G1 X122.992 Y120.032 E.00614
G1 X122.372 Y120.011 E.02991
G1 X121.686 Y120.048 E.03312
G1 X121.357 Y120.191 E.01729
G1 X121.282 Y120.266 E.00511
G1 X120.638 Y120.453 E.03233
G1 X119.904 Y120.8 E.03914
G1 X119.412 Y120.968 E.02506
G1 X118.552 Y121.196 E.04289
G1 X118.313 Y121.282 E.01224
G1 X117.733 Y121.593 E.03173
G1 X117.457 Y121.88 E.01919
G1 X117.296 Y122.367 E.02473
G1 X117.222 Y122.515 E.00798
G1 X117.025 Y122.777 E.0158
G1 X116.803 Y123.13 E.0201
G1 X116.728 Y123.206 E.00515
G1 X116.413 Y123.383 E.01742
G1 X116.068 Y123.544 E.01835
G1 X115.965 Y123.566 E.00508
G1 X115.663 Y123.566 E.01456
G1 X115.211 Y123.516 E.02192
G1 X114.869 Y123.5 E.0165
G1 X114.269 Y123.388 E.02942
G1 X113.429 Y123.112 E.04262
G1 X113.005 Y122.942 E.02202
G1 X112.848 Y122.909 E.00773
G1 X112.66 Y122.796 E.01057
G1 X112.483 Y122.626 E.01183
G1 X112.122 Y122.503 E.01839
G1 X111.841 Y122.359 E.01522
G1 X111.512 Y122.267 E.01647
G1 X111.459 Y122.051 E.01072
G1 X111.235 Y121.745 E.01828
G1 X110.785 Y121.562 E.02342
G1 X110.724 Y121.401 E.0083
G1 X110.215 Y121.152 E.02732
G1 X110.085 Y120.474 E.03328
G1 X109.759 Y119.78 E.03696
G1 X109.67 Y119.326 E.0223
G1 X109.667 Y119.13 E.00945
G1 X109.676 Y119.101 E.00146
G1 X109.896 Y118.921 E.0137
G1 X110.111 Y118.598 E.0187
G1 X110.43 Y118.509 E.01597
G1 X110.885 Y118.065 E.03065
G1 X110.916 Y117.618 E.0216
G1 X110.888 Y117.255 E.01755
G1 X110.69 Y116.821 E.023
G1 X110.879 Y116.411 E.02176
G1 X110.899 Y116.328 E.00412
G1 X111.153 Y115.99 E.02038
G1 X111.276 Y115.698 E.01527
G1 X111.301 Y115.52 E.00867
G1 X111.388 Y115.4 E.00715
G1 X111.482 Y115.18 E.01153
G1 X111.579 Y114.791 E.01933
G1 X111.649 Y114.652 E.0075
G1 X111.74 Y114.385 E.0136
G1 X112.146 Y114.393 F6000
G1 F1266.769
G1 X112.146 Y113.91 E.02328
G1 X111.971 Y113.331 E.02916
G1 X111.804 Y112.288 E.05092
G1 X111.924 Y111.219 E.05186
G1 X111.987 Y110.944 E.0136
G1 X112.078 Y110.766 E.00964
G1 X112.379 Y110.302 E.02666
G1 X112.6 Y109.508 E.03973
G1 X112.766 Y109.141 E.01942
G1 X112.96 Y108.881 E.01564
G1 X113.076 Y108.802 E.00677
G1 X113.902 Y108.004 E.05537
G1 X114.774 Y107.792 E.04326
G1 X115.115 Y107.676 E.01736
G1 X115.691 Y107.391 E.03098
G1 X115.978 Y106.844 E.02978
G1 X116.132 Y106.292 E.02763
G1 X116.329 Y105.798 E.02564
G1 X116.405 Y105.694 E.00621
G1 X116.535 Y105.567 E.00876
G1 X116.653 Y105.5 E.00654
G1 X116.834 Y105.425 E.00944
G1 X117.002 Y105.395 E.00823
G1 X117.125 Y105.399 E.00593
G1 X117.481 Y105.542 E.01849
G1 X117.638 Y105.664 E.00958
G1 X117.685 Y105.754 E.00489
G1 X117.742 Y105.937 E.00924
G1 X117.849 Y106.701 E.03719
G1 X117.968 Y107.156 E.02267
G1 X118.349 Y107.804 E.03624
G1 X119.268 Y108.377 E.05221
G1 X120.015 Y107.696 E.04873
G1 X120.294 Y107.295 E.02355
G1 X120.705 Y107.407 E.02054
G1 X121.011 Y107.553 E.01634
G1 X121.209 Y107.696 E.01177
G1 X121.467 Y108.015 E.01978
G1 X121.574 Y108.225 E.01136
G1 X121.613 Y108.359 E.00673
G1 X121.639 Y108.555 E.00953
G1 X121.654 Y109.133 E.02787
G1 X121.624 Y109.329 E.00956
G1 X121.101 Y109.502 E.02656
G1 X120.577 Y110.244 E.04379
G1 X120.69 Y110.987 E.03623
G1 X120.938 Y111.592 E.03152
G1 X121.638 Y112.01 E.0393
G1 X122.381 Y111.904 E.03618
G1 X122.728 Y111.787 E.01765
G1 X123.122 Y111.557 E.02199
G1 X123.439 Y111.33 E.0188
G1 X123.541 Y111.302 E.0051
G1 X123.924 Y111.338 E.01854
G1 X124.172 Y111.401 E.01234
G1 X124.766 Y111.753 E.03329
G1 X124.969 Y111.957 E.01387
G1 X125.13 Y112.188 E.01357
G1 X125.212 Y112.404 E.01114
G1 X125.229 Y112.613 E.01011
G1 X124.717 Y113.177 E.03672
G1 X124.493 Y113.483 E.01828
G1 X124.242 Y114.179 E.03567
G1 X124.482 Y114.676 E.02661
G1 X124.756 Y115.108 E.02466
G1 X125.493 Y115.298 E.03669
G1 X125.995 Y115.278 E.02422
G1 X126.377 Y115.17 E.01914
G1 X126.77 Y115.006 E.02053
G1 X127.116 Y115.218 E.01956
G1 X127.269 Y115.337 E.00934
G1 X127.358 Y115.444 E.00671
G1 X127.445 Y115.622 E.00955
G1 X127.446 Y115.918 E.01427
G1 X127.387 Y116.228 E.01521
G1 X127.194 Y116.386 E.01202
G1 X127.07 Y116.449 E.0067
G1 X126.911 Y116.453 E.00767
G1 X126.275 Y116.306 E.03147
G1 X125.692 Y116.514 E.02984
G1 X125.363 Y116.809 E.0213
G1 X125.241 Y116.956 E.00921
G1 X124.95 Y117.232 E.01933
G1 X124.908 Y117.309 E.00423
G1 X124.788 Y117.409 E.00753
G1 X124.538 Y118.166 E.03843
G1 X124.395 Y118.503 E.01765
G1 X124.11 Y118.958 E.02588
G1 X123.664 Y119.33 E.028
G1 X122.934 Y119.649 E.0384
G1 X122.373 Y119.624 E.02707
G1 X121.596 Y119.666 E.03751
G1 X121.135 Y119.866 E.02422
G1 X121.078 Y119.923 E.00389
G1 X120.501 Y120.09 E.02896
G1 X119.759 Y120.441 E.03957
G1 X119.3 Y120.598 E.02339
G1 X118.437 Y120.827 E.04304
G1 X118.155 Y120.928 E.01444
G1 X117.496 Y121.281 E.03604
G1 X117.118 Y121.675 E.02632
G1 X116.892 Y122.311 E.03254
G1 X116.706 Y122.558 E.01491
G1 X116.496 Y122.893 E.01906
G1 X115.934 Y123.18 E.03042
G1 X115.685 Y123.18 E.012
G1 X114.914 Y123.115 E.0373
G1 X114.365 Y123.013 E.02692
G1 X113.561 Y122.748 E.04081
G1 X113.117 Y122.571 E.02304
G1 X112.991 Y122.544 E.00621
G1 X112.897 Y122.487 E.0053
G1 X112.689 Y122.287 E.01391
G1 X112.273 Y122.146 E.02117
G1 X111.971 Y121.992 E.01634
G1 X111.881 Y121.973 E.00443
G1 X111.483 Y121.429 E.03249
G1 X111.087 Y121.267 E.02063
G1 X111.031 Y121.121 E.00754
G1 X110.558 Y120.889 E.0254
G1 X110.455 Y120.354 E.02626
G1 X110.129 Y119.659 E.03701
G1 X110.057 Y119.289 E.01817
G1 X110.186 Y119.183 E.00805
G1 X110.353 Y118.932 E.01453
G1 X110.629 Y118.855 E.01381
G1 X111.26 Y118.239 E.04251
G1 X111.304 Y117.616 E.03011
G1 X111.268 Y117.162 E.02195
G1 X111.12 Y116.813 E.01827
G1 X111.257 Y116.494 E.01674
G1 X111.49 Y116.184 E.01869
G1 X111.652 Y115.802 E.02
G1 X111.67 Y115.669 E.00647
G1 X111.726 Y115.592 E.00459
G1 X111.85 Y115.304 E.01512
G1 X111.944 Y114.926 E.01878
G1 X112.006 Y114.802 E.00668
G1 X112.126 Y114.449 E.01797
G1 X112.532 Y114.457 F6000
G1 F1266.769
G1 X112.532 Y113.853 E.02912
G1 X112.349 Y113.244 E.03065
G1 X112.194 Y112.279 E.04712
G1 X112.306 Y111.283 E.04832
G1 X112.353 Y111.078 E.01014
G1 X112.736 Y110.463 E.03493
G1 X112.964 Y109.64 E.04117
G1 X113.106 Y109.326 E.01661
G1 X113.218 Y109.173 E.00914
G1 X113.322 Y109.102 E.00607
G1 X114.08 Y108.369 E.05083
G1 X114.884 Y108.163 E.04001
G1 X115.264 Y108.034 E.01935
G1 X115.976 Y107.682 E.03829
G1 X116.339 Y106.988 E.03776
G1 X116.499 Y106.416 E.02863
